icons/svg/seamark/notice_regulation_crosstostarboard.svg

<?xml version="1.0" encoding="UTF-8" standalone="no"?>
<svg
   xmlns:dc="http://purl.org/dc/elements/1.1/"
   xmlns:cc="http://creativecommons.org/ns#"
   xmlns:rdf="http://www.w3.org/1999/02/22-rdf-syntax-ns#"
   xmlns:svg="http://www.w3.org/2000/svg"
   xmlns="http://www.w3.org/2000/svg"
   xmlns:sodipodi="http://sodipodi.sourceforge.net/DTD/sodipodi-0.dtd"
   xmlns:inkscape="http://www.inkscape.org/namespaces/inkscape"
   width="320"
   height="320"
   id="svg2"
   version="1.1"
   inkscape:version="0.48.4 r9939"
   sodipodi:docname="notice_regulation_crosstoport.svg">
  <defs
     id="defs13">
    <inkscape:path-effect
       effect="gears"
       id="path-effect3774"
       is_visible="true"
       teeth="6"
       phi="-1.2" />
    <inkscape:path-effect
       effect="bend_path"
       id="path-effect3772"
       is_visible="false"
       bendpath="m 95.790098,316.51174 c 144.429032,-206.42506 223.313032,-11.7428 339.548092,0"
       prop_scale="1.19"
       scale_y_rel="false"
       vertical="false"
       bendpath-nodetypes="cc" />
    <inkscape:path-effect
       effect="spiro"
       id="path-effect3775-7"
       is_visible="true" />
    <inkscape:path-effect
       effect="spiro"
       id="path-effect3775-7-9"
       is_visible="true" />
    <inkscape:path-effect
       effect="spiro"
       id="path-effect3775-7-4"
       is_visible="true" />
    <inkscape:path-effect
       effect="spiro"
       id="path-effect3775-7-4-2"
       is_visible="true" />
  </defs>
  <sodipodi:namedview
     pagecolor="#ffffff"
     bordercolor="#666666"
     borderopacity="1"
     objecttolerance="10"
     gridtolerance="10"
     guidetolerance="10"
     inkscape:pageopacity="0"
     inkscape:pageshadow="2"
     inkscape:window-width="1920"
     inkscape:window-height="1004"
     id="namedview11"
     showgrid="false"
     inkscape:zoom="3.2551722"
     inkscape:cx="171.80626"
     inkscape:cy="140.36689"
     inkscape:window-x="1680"
     inkscape:window-y="0"
     inkscape:window-maximized="1"
     inkscape:current-layer="svg2"
     inkscape:snap-bbox="true"
     inkscape:object-nodes="true"
     inkscape:snap-midpoints="true"
     inkscape:snap-grids="true"
     inkscape:snap-bbox-edge-midpoints="true"
     showguides="true"
     inkscape:guide-bbox="true">
    <inkscape:grid
       type="xygrid"
       id="grid2990"
       empspacing="5"
       visible="true"
       enabled="true"
       snapvisiblegridlinesonly="true"
       spacingx="10px"
       spacingy="10px"
       dotted="false" />
    <sodipodi:guide
       orientation="1,0"
       position="55.202458,260.58927"
       id="guide3872" />
    <sodipodi:guide
       orientation="1,0"
       position="265.17816,340"
       id="guide3874" />
    <sodipodi:guide
       orientation="0,1"
       position="317.80107,264.96094"
       id="guide3876" />
    <sodipodi:guide
       orientation="0,1"
       position="325.098,54.759006"
       id="guide3878" />
  </sodipodi:namedview>
  <metadata
     id="metadata2975">image/svg+xmlen<rdf:RDF>
  <cc:Work
     rdf:about="">
    <dc:format>image/svg+xml</dc:format>
    <dc:type
       rdf:resource="http://purl.org/dc/dcmitype/StillImage" />
    <dc:title></dc:title>
  </cc:Work>
</rdf:RDF>
</metadata>
  <path
     style="color:#000000;fill:#000000;fill-opacity:1;stroke:none;stroke-width:15.17103481;marker:none;visibility:visible;display:inline;overflow:visible;enable-background:accumulate"
     d="m 178.39516,112.00178 24.40228,-29.21289 24.72658,29.21048 -15.04795,6.3e-4 0,25.1555 L 111.1901,197.12184 111.1342,236 l -18.65817,0 0,-48.44353 101.33865,-59.31794 -0.003,-16.23422 -15.41652,-0.003"
     id="path3772-3-9"
     inkscape:path-effect="#path-effect3775-7-4"
     inkscape:original-d="m 178.39516,112.00178 24.40228,-29.21289 24.72658,29.21048 -15.04795,6.3e-4 0,25.1555 L 111.1901,197.12184 111.1342,236 l -18.65817,0 0,-48.44353 101.33865,-59.31794 -0.003,-16.23422 z"
     inkscape:connector-curvature="0"
     sodipodi:nodetypes="cccccccccccc" />
  <path
     style="color:#000000;fill:#000000;fill-opacity:1;stroke:none;stroke-width:15.17103481;marker:none;visibility:visible;display:inline;overflow:visible;enable-background:accumulate"
     d="m 111.12505,84.78125 0.0312,16.65625 -18.6875,-0.125 0,-16.53125 z m -18.65625,30.625 18.71875,0.125 0,10.125 14.875,8.8125 -8.75,15.28125 -24.84375,-14.53125 z m 49.15625,27.46875 38.21875,23.4375 -8.59375,15.03125 -38.3125,-23.25 z m 54.15625,32.03125 16.6875,10.71875 0,25.15625 15.0625,0 L 202.81255,240 178.4063,210.78125 l 15.40625,0 0,-16.21875 -6.59375,-4.6875 z"
     id="path3772-3-9-8"
     inkscape:connector-curvature="0"
     sodipodi:nodetypes="ccccccccccccccccccccccccccc" />
</svg>

<svg width="320" height="320" viewBox="0 0 320 320" fill="none" xmlns="http://www.w3.org/2000/svg">
<path d="M178.395 112.002L202.797 82.7891L227.524 112L212.476 112V137.156L111.19 197.122L111.134 236H92.4761V187.557L193.815 128.239L193.812 112.004L178.395 112.001" fill="black"/>
<path d="M111.125 84.7812L111.156 101.438L92.4688 101.312V84.7812H111.125ZM92.4688 115.406L111.188 115.531V125.656L126.063 134.469L117.313 149.75L92.4688 135.219V115.406ZM141.625 142.875L179.844 166.312L171.25 181.344L132.938 158.094L141.625 142.875ZM195.781 174.906L212.469 185.625V210.781H227.531L202.813 240L178.406 210.781H193.813V194.562L187.219 189.875L195.781 174.906Z" fill="black"/>
</svg>
